X:1
T: Miss Burn's Reel
C:
R:Reel
Q: 232
K:D
M:4/4
L:1/8
|:B|A2 FA dA FD|GE FD CE EB|A2 FA dA FA|BG EA FD DB|
A2 FA dA FD|GE FD CE EB|A2 FA dA FA|BG EA FD Dg|
fe df ab af|ge fd eB Bg|fe df ab af|f1/2g1/2a e1/2f1/2g fd dg|
fe df ab af|ge fd eB Bg|fd ec dA BF|GB Eg fd d:|
